client/src/assets/add-photo.svg

<svg width="14" height="14" viewBox="0 0 14 14" fill="none" xmlns="http://www.w3.org/2000/svg">
<path fill-rule="evenodd" clip-rule="evenodd" d="M13.7673 6.62509C13.7712 5.04231 13.633 3.46217 13.3543 1.90228C13.2128 1.13636 12.5898 0.53676 11.794 0.400592C8.54575 -0.128974 5.22808 -0.128974 1.97981 0.400592C1.184 0.53676 0.561004 1.13636 0.419523 1.90228C0.138631 3.46199 -0.00170542 5.04213 8.06113e-05 6.62509C-0.0038273 8.20788 0.134359 9.78802 0.413098 11.3479C0.554579 12.1138 1.17758 12.7134 1.97339 12.8496C3.5951 13.1191 5.23799 13.2531 6.8837 13.2502C8.52824 13.254 10.1701 13.121 11.7908 12.8527C12.5866 12.7165 13.2096 12.1169 13.3511 11.351C13.4658 10.7207 13.5512 10.0741 13.6186 9.41956L13.631 9.40764L13.6209 9.39792C13.715 8.48763 13.7673 7.56321 13.7673 6.62509ZM12.4489 11.196C12.3744 11.5963 12.0489 11.9096 11.6329 11.9813C8.48877 12.4928 5.27769 12.4928 2.13353 11.9813C1.71761 11.9096 1.39204 11.5963 1.3176 11.196C1.10885 10.0301 0.982518 8.85197 0.939456 7.66965L3.48777 5.22013C3.53171 5.17694 3.59251 5.15353 3.65527 5.15565C3.71796 5.15703 3.77732 5.18305 3.81956 5.22764L7.43438 9.05827C7.64555 9.28168 7.94257 9.41208 8.25629 9.41912C8.57001 9.42785 8.87345 9.31093 9.09425 9.09626L10.3916 7.84765C10.4346 7.80611 10.4931 7.78277 10.554 7.78277C10.615 7.78277 10.6734 7.80611 10.7165 7.84765L12.6659 9.72122C12.6049 10.219 12.5365 10.7128 12.4489 11.196ZM11.3663 7.22312L12.7733 8.57729C12.8201 7.93377 12.8495 7.28319 12.8495 6.62509C12.853 5.09321 12.7189 3.5639 12.4489 2.05422C12.3744 1.65391 12.0489 1.34057 11.633 1.26892C10.0644 1.00904 8.47537 0.880033 6.88371 0.883341C5.29205 0.880033 3.70306 1.00904 2.13447 1.26892C1.71855 1.34057 1.39297 1.65391 1.31853 2.05422C1.06037 3.50247 0.927743 4.96887 0.922036 6.43827L2.83752 4.59561C3.05935 4.38217 3.36232 4.26546 3.6759 4.27263C3.98949 4.27981 4.28634 4.41025 4.49739 4.63359L8.1145 8.46422C8.15675 8.50881 8.21611 8.53483 8.27879 8.53621C8.34131 8.53698 8.40157 8.51378 8.44629 8.47173L9.74363 7.22312C9.95879 7.01598 10.2506 6.89961 10.555 6.89961C10.8593 6.89961 11.1512 7.01598 11.3663 7.22312Z" fill="#3B566E"/>
<path fill-rule="evenodd" clip-rule="evenodd" d="M7.34265 4.00994C7.34265 3.01496 8.15368 2.20837 9.15413 2.20837C9.63456 2.20837 10.0953 2.39818 10.435 2.73604C10.7748 3.0739 10.9656 3.53213 10.9656 4.00994C10.9656 5.00491 10.1546 5.8115 9.15413 5.8115C8.15368 5.8115 7.34265 5.00491 7.34265 4.00994ZM8.24845 4.00994C8.24845 4.50742 8.65396 4.91072 9.15419 4.91072C9.65441 4.91072 10.0599 4.50742 10.0599 4.00994C10.0599 3.51245 9.65441 3.10915 9.15419 3.10915C8.65396 3.10915 8.24845 3.51245 8.24845 4.00994Z" fill="#3B566E"/>
</svg>

<svg width="14" height="14" fill="none" xmlns="http://www.w3.org/2000/svg"><path fill-rule="evenodd" clip-rule="evenodd" d="M13.767 6.625a26.478 26.478 0 00-.413-4.723c-.141-.766-.764-1.365-1.56-1.501A30.512 30.512 0 001.98.4C1.184.537.56 1.136.42 1.902.139 3.462-.002 5.042 0 6.625a26.473 26.473 0 00.413 4.723c.142.766.765 1.365 1.56 1.502 1.622.27 3.265.403 4.91.4a29.63 29.63 0 004.908-.397c.796-.136 1.419-.736 1.56-1.502.115-.63.2-1.277.268-1.931l.012-.012-.01-.01c.094-.91.146-1.835.146-2.773zm-1.318 4.571c-.075.4-.4.714-.816.785a29.595 29.595 0 01-9.5 0 .991.991 0 01-.815-.785A25.214 25.214 0 01.939 7.67l2.549-2.45a.228.228 0 01.167-.064.233.233 0 01.165.072l3.614 3.83c.212.224.509.354.822.361.314.009.617-.108.838-.323l1.298-1.248a.234.234 0 01.325 0l1.949 1.873c-.061.498-.13.992-.217 1.475zm-1.083-3.973l1.407 1.354a25.627 25.627 0 00-.324-6.523.991.991 0 00-.816-.785 28.696 28.696 0 00-4.75-.386 28.695 28.695 0 00-4.749.386.991.991 0 00-.815.785 25.544 25.544 0 00-.397 4.384l1.916-1.842c.221-.214.524-.33.838-.323.313.007.61.137.821.36l3.617 3.831c.043.045.102.07.165.072a.24.24 0 00.167-.064l1.298-1.249a1.17 1.17 0 01.811-.323c.304 0 .596.116.811.323z" fill="#3B566E"/><path fill-rule="evenodd" clip-rule="evenodd" d="M7.343 4.01c0-.995.81-1.802 1.811-1.802.48 0 .941.19 1.281.528.34.338.53.796.53 1.274 0 .995-.81 1.801-1.81 1.801-1.001 0-1.812-.806-1.812-1.801zm.905 0c0 .497.406.9.906.9s.906-.403.906-.9c0-.498-.406-.9-.906-.9s-.906.402-.906.9z" fill="#3B566E"/></svg>
